storage/app/icons/phosphoricons/bold/file-arrow-up-bold.svg

<svg xmlns="http://www.w3.org/2000/svg" fill="currentColor" viewBox="0 0 256 256"><path d="m216.49 79.52-56-56A12 12 0 0 0 152 20H56a20 20 0 0 0-20 20v176a20 20 0 0 0 20 20h144a20 20 0 0 0 20-20V88a12 12 0 0 0-3.51-8.48M183 80h-23V57ZM60 212V44h76v48a12 12 0 0 0 12 12h48v108Zm100.49-72.49a12 12 0 0 1-17 17L140 153v31a12 12 0 0 1-24 0v-31l-3.51 3.52a12 12 0 0 1-17-17l24-24a12 12 0 0 1 17 0Z"/></svg>

<svg xmlns="http://www.w3.org/2000/svg" viewBox="0 0 256 256" fill="currentColor"><path d="M216.49,79.52l-56-56A12,12,0,0,0,152,20H56A20,20,0,0,0,36,40V216a20,20,0,0,0,20,20H200a20,20,0,0,0,20-20V88A12,12,0,0,0,216.49,79.52ZM183,80H160V57ZM60,212V44h76V92a12,12,0,0,0,12,12h48V212Zm100.49-72.49a12,12,0,0,1-17,17L140,153v31a12,12,0,0,1-24,0V153l-3.51,3.52a12,12,0,0,1-17-17l24-24a12,12,0,0,1,17,0Z"/></svg>
